X:2985
T:Chipin Fair
M:4/4
L:1/8
K:D
dscs|d2D2sD2s AG|F2 d2sd2s cd|e2 E2sE2s esds|c2 a2a2 ga|bagf gfed|edcB A
2G2|Bdce dfeg|f2 d2sd2s:|!
AG|FAdA FAdA|B2 G2sG2s cB|Aced Aced|c2 A2sA2s gf|g2a2 bagf|gfed c2A2| Bd
ce dfeg|f2 d2sd2s:|


